svgs/sharp-light/building-user.svg

<svg xmlns="http://www.w3.org/2000/svg" viewBox="0 0 640 512"><!--! Font Awesome Pro 6.6.0 by @fontawesome - https://fontawesome.com License - https://fontawesome.com/license (Commercial License) Copyright 2024 Fonticons, Inc. --><path d="M32 32l320 0 0 400.2L384 359l0-327 0-32L352 0 32 0 0 0 0 32 0 480l0 32 32 0 96 0 32 0 64 0 32 0 61.1 0 14-32L256 480l0-80 0-32-32 0-64 0-32 0 0 32 0 80-96 0L32 32zM160 480l0-80 64 0 0 80-64 0zM64 96l0 16 0 64 0 16 16 0 64 0 16 0 0-16 0-64 0-16-16 0L80 96 64 96zm32 32l32 0 0 32-32 0 0-32zM240 96l-16 0 0 16 0 64 0 16 16 0 64 0 16 0 0-16 0-64 0-16-16 0-64 0zm16 64l0-32 32 0 0 32-32 0zM64 224l0 16 0 64 0 16 16 0 64 0 16 0 0-16 0-64 0-16-16 0-64 0-16 0zm32 32l32 0 0 32-32 0 0-32zm144-32l-16 0 0 16 0 64 0 16 16 0 64 0 16 0 0-16 0-64 0-16-16 0-64 0zm16 64l0-32 32 0 0 32-32 0zm152 96l-8.4 19.2-28 64L366 480l-14 32 34.9 0 14 0 190.1 0 14 0 34.9 0-14-32-5.6-12.8-28-64L584 384l-20.9 0L496 384l-67.1 0L408 384zm183.1 96l-34.9 0-120.3 0-34.9 0 14-32 14-32 134.1 0 14 32 14 32zM576 272a80 80 0 1 0 -160 0 80 80 0 1 0 160 0zm-128 0a48 48 0 1 1 96 0 48 48 0 1 1 -96 0z"/></svg>

<svg xmlns="http://www.w3.org/2000/svg" viewBox="0 0 640 512"><!--! Font Awesome Pro 6.5.2 by @fontawesome - https://fontawesome.com License - https://fontawesome.com/license (Commercial License) Copyright 2024 Fonticons, Inc. --><path d="M32 32H352V432.2L384 359V32 0H352 32 0V32 480v32H32h96 32 64 32 61.1l14-32H256V400 368H224 160 128v32 80H32V32zM160 480V400h64v80H160zM64 96v16 64 16H80h64 16V176 112 96H144 80 64zm32 32h32v32H96V128zM240 96H224v16 64 16h16 64 16V176 112 96H304 240zm16 64V128h32v32H256zM64 224v16 64 16H80h64 16V304 240 224H144 80 64zm32 32h32v32H96V256zm144-32H224v16 64 16h16 64 16V304 240 224H304 240zm16 64V256h32v32H256zm152 96l-8.4 19.2-28 64L366 480l-14 32h34.9 14H591.1h14H640l-14-32-5.6-12.8-28-64L584 384H563.1 496 428.9 408zm183.1 96H556.1 435.9 400.9l14-32 14-32H563.1l14 32 14 32zM576 272a80 80 0 1 0 -160 0 80 80 0 1 0 160 0zm-128 0a48 48 0 1 1 96 0 48 48 0 1 1 -96 0z"/></svg>
